!!!COM:	Isaac, Heinrich
!!!CDT:	~1450-1517/03/26
!!!OTL:	Credo III
!!!AGN:	Mass; Credo
!!!SCT:	Isa1040
!!!SCA:	Isa1040
!!!voices:	4
**kern	**kern	**kern	**kern
*staff4	*staff3	*staff2	*staff1
*Ivox	*Ivox	*Ivox	*Ivox
*I"Bassus	*I"Tenor	*I"Altus	*I"Discantus
*I'B	*I'T	*I'A	*I'D
*>[A,B,C,D]	*>[A,B,C,D]	*>[A,B,C,D]	*>[A,B,C,D]
*>A	*>A	*>A	*>A
*clefF4	*clefGv2	*clefGv2	*clefG2
*k[b-]	*k[b-]	*k[b-]	*k[b-]
*M2/1	*M2/1	*M2/1	*M2/1
*met(C|)	*met(C|)	*met(C|)	*met(C|)
!!section: Patrem omnipotentem
!!!OMD: Patrem omnipotentem
=1-	=1-	=1-	=1-
0r	0r	1d	1r
.	.	1G	1dd
=2	=2	=2	=2
0r	0r	2r	1g
.	.	1g	.
.	.	.	1dd
.	.	2f\	.
=3	=3	=3	=3
0r	0r	4e\	1cc
.	.	4d\	.
.	.	4e\	.
.	.	4c\	.
.	.	2d\	2b-\
.	.	4c\	[2a/
.	.	4B-\	.
=4	=4	=4	=4
0r	0r	4c\	4a/]
.	.	4B-\	4g/
.	.	4A/	1g
.	.	4G/	.
.	.	1A	.
.	.	.	2f#i/
=5	=5	=5	=5
1G	1d	1r	2.g/
.	.	.	4a/
1d	1G	2r	4b-\
.	.	.	4cc\
.	.	2G/	2dd\
=6	=6	=6	=6
2r	2r	2A/	2cc\
2G\	2d\	2B-\	2b-\
2A\	2c\	2c\	4a/
.	.	.	4g/
2B-\	2B-\	2d\	[2dd\
=7	=7	=7	=7
1c	1A	2e\	4dd\]
.	.	.	4cc\
.	.	2f\	1cc
1d	1G	1g	.
.	.	.	2bni\
=8	=8	=8	=8
2c\	1r	1e	0cc
2.c\	.	.	.
.	1A	1c	.
4B-\	.	.	.
4A\	.	.	.
4G\	.	.	.
=9	=9	=9	=9
2F\	1c	2r	1r
2E\	.	2g\	.
1D	1d	2f\	1a
.	.	2f\	.
=10	=10	=10	=10
2r	2r	1e	1cc
2A\	2e\	.	.
2.D\	2.f\	1d	1dd
4E\	4e\	.	.
=11	=11	=11	=11
4F\	2d\	1r	2r
4G\	.	.	.
2E\	2c\	.	2ee\
2D\	2d\	2r	2ff\
2r	2e\	2c\	2ee\
=12	=12	=12	=12
0r	2f\	2d\	2a/
.	2g\	2G/	1dd
.	1e	1A	.
.	.	.	2cc#i\
=13	=13	=13	=13
2r	0d	2B-\	0dd
1d	.	1G	.
2B-\	.	4g\	.
.	.	4f\	.
=14	=14	=14	=14
4c\	2r	4e\	0r
4B-\	.	4d\	.
4A\	1e	4c\	.
4G\	.	4B-\	.
2A\	.	1c	.
2A\	2f\	.	.
=15	=15	=15	=15
2.G\	1.g	2r	0r
.	.	1e	.
4F\	.	.	.
2E\	.	.	.
2D\	2f\	2f\	.
=16	=16	=16	=16
1C	1e	1.g	2r
.	.	.	1ee
1r	2e\	.	.
.	2d\	2f\	2ff\
=17	=17	=17	=17
0r	1c	1e	1.gg
.	1r	2e\	.
.	.	2d\	2ff\
=18	=18	=18	=18
1r	1r	1c	1ee
2r	2r	2A/	2.ee\
2G\	2e\	2B-\	.
.	.	.	4dd\
=19	=19	=19	=19
1A	2f\	2c\	1cc
.	4e\	4B-\	.
.	4d\	4A/	.
2A\	2f\	2c\	1r
2G\	[2e\	[2B-\	.
=20	=20	=20	=20
2.F\	2e\]	4B-\]	1r
.	.	4A/	.
.	2d\	1A	.
8E\L	.	.	.
8D\J	.	.	.
2E\	2d\	.	2r
2E\	2c#i\	2G/	2ee\
=21	=21	=21	=21
4D\	2d\	1A	2.ff\
4E\	.	.	.
4F\	1a	.	.
4G\	.	.	8ee\L
.	.	.	8dd\J
4A\	.	2r	2ff\
4B-\	.	.	.
4c\	2g\	2e\	[2ee\
8B-\L	.	.	.
8c\J	.	.	.
=22	=22	=22	=22
2d\	2f\	2f\	2ee\]
2B-\	2d\	2g\	2dd\
1A	1e	2.a\	2dd\
.	.	.	2cc#i\
.	.	4g\	.
=23	=23	=23	=23
1D	1r	4f\	0dd
.	.	4d\	.
.	.	1g	.
1r	1d	.	.
.	.	2f#i\	.
=24	=24	=24	=24
1G	1G	0g	0r
1C	2.c\	.	.
.	4d\	.	.
=25	=25	=25	=25
2.F\	2.c\	0r	0r
4G\	4B-\	.	.
2F\	2A/	.	.
2E\	2G/	.	.
=26	=26	=26	=26
2.D\	1F	0r	0r
4C/	.	.	.
1BB-	1G	.	.
=27	=27	=27	=27
1C	1A	0r	1r
1D	1r	.	1dd
=28	=28	=28	=28
0r	0r	1g	1g
.	.	1c	2.cc\
.	.	.	4dd\
=29	=29	=29	=29
0r	0r	2.f\	2.cc\
.	.	4g\	4b-\
.	.	2f\	2a/
.	.	2e\	2g/
=30	=30	=30	=30
0r	0r	2.d\	1f
.	.	4c\	.
.	.	1B-	1g
=31	=31	=31	=31
1r	1r	1c	1a
2r	2r	4d\	1r
.	.	4e\	.
2D\	2A/	4f\	.
.	.	4g\	.
=32	=32	=32	=32
2A\	2c\	2e\	0r
2F\	2d\	1d	.
2G\	1e	.	.
2A\	.	2c#i\	.
=33	=33	=33	=33
2D\	1f	2d\	1r
2F\	.	2A/	.
2G\	2e\	2B-\	2r
[2A\	[2f\	2c\	2a/
=34	=34	=34	=34
4A\]	4f\]	1A	2cc\
4G\	4e\	.	.
2F\	1d	.	2dd\
1E	.	1r	1ee
.	2c#i\	.	.
=35	=35	=35	=35
1D	2d\	1r	1ff
.	2d\	.	.
2r	1A	2r	2ee\
2D\	.	2A/	[2ff\
=36	=36	=36	=36
2A\	0r	2c\	4ff\]
.	.	.	4ee\
2F\	.	2d\	1dd
2G\	.	1e	.
2A\	.	.	2cc#i\
=37	=37	=37	=37
2D\	2r	1f	1dd
2B-\	2d\	.	.
2c\	2e\	2e\	2r
[2d\	[2d\	[2f\	2d/
=38	=38	=38	=38
4d\]	2d\]	4f\]	2f/
4c\	.	4e\	.
2B-\	1g	1d	2g/
1A	.	.	1a
.	2f#i\	2c\	.
=39	=39	=39	=39
1G	2g\	[0d	1b-
.	2G/	.	.
2F\	2A/	.	2a/
[2G\	2G/	.	[2b-\
=40	=40	=40	=40
4G\]	2.B-\	0d]	4b-\]
4F\	.	.	4a/
2G\	.	.	1g
.	4c\	.	.
1D	1A	.	.
.	.	.	2f/
=41	=41	=41	=41
2r	1G	0r	2g/
2E\	.	.	2b-\
1F	2r	.	1a
.	2A/	.	.
=42	=42	=42	=42
2G\	1B-	1r	0r
2D\	.	.	.
1E	2c\	2r	.
.	2G/	2e\	.
=43	=43	=43	=43
1D	1A	1f	2r
.	.	.	2a/
1r	4G/	2g\	1b-
.	4A/	.	.
.	4B-\	2d\	.
.	4c\	.	.
=44	=44	=44	=44
1r	4A/	1e	2cc\
.	4G/	.	.
.	1g	.	2g/
2r	.	1d	1a
2d\	2f#i\	.	.
=45	=45	=45	=45
2G\	1g	1r	2g/
2B-\	.	.	1dd
1A	1r	1a	.
.	.	.	2cc\
=46	=46	=46	=46
0r	1d	2d\	1dd
.	.	2a\	.
.	1G	2.g\	1r
.	.	4a\	.
=47	=47	=47	=47
0r	2r	2g\	1dd
.	2d\	2f\	.
.	2.c\	2e\	1g
.	.	[2g\	.
.	4d\	.	.
=48	=48	=48	=48
0r	2c\	4g\]	2r
.	.	4f\	.
.	2B-\	2d\	2dd\
.	1A	2e\	2.cc\
.	.	[2f\	.
.	.	.	4dd\
=49	=49	=49	=49
1A	1r	4f\]	2.cc\
.	.	4e\	.
.	.	2c\	.
.	.	.	4b-\
1D	2r	1d	1a
.	2a\	.	.
=50	=50	=50	=50
2r	2a\	2r	0r
2A\	2a\	2c\	.
2.G\	2d\	2.B-\	.
.	4g\	.	.
4A\	4f\	4c\	.
=51	=51	=51	=51
2G\	4e\	2B-\	1r
.	4d\	.	.
2F\	1d	1A	.
2E\	.	.	2r
2E\	2c#i\	2G/	2g/
=52	=52	=52	=52
2D\	1d	2A/	4f/
.	.	.	4g/
2d\	.	2f\	4a/
.	.	.	4b-\
2c\	1r	2e\	2cc\
2B-\	.	2d\	2dd\
=53	=53	=53	=53
1A	1r	1e	2dd\
.	.	.	2cc#i\
1r	2r	1d	2.dd\
.	2G/	.	.
.	.	.	4ccni\
=54	=54	=54	=54
2r	4F/	0r	1a
.	4G/	.	.
2A\	4A/	.	.
.	4B-\	.	.
2A\	2c\	.	1r
2F\	2d\	.	.
=55	=55	=55	=55
2G\	2d\	2r	2r
2A\	2c#i\	2a\	2ee\
1D	1d	2a\	2.ff\
.	.	2f\	.
.	.	.	4ee\
=56	=56	=56	=56
2r	2r	2g\	2dd\
2A\	2e\	2a\	2cc\
2F\	2.f\	2.d\	2dd\
2D\	.	.	2a/
.	4e\	4c\	.
=57	=57	=57	=57
2G\	2d\	2B-\	2b-\
2E\	2c\	2c\	2g/
1D	1d	1A	2g/
.	.	.	2f#i/
=58	=58	=58	=58
2E\	0r	2G/	[0g
2C/	.	1c	.
1G	.	.	.
.	.	2Bni\	.
=59	=59	=59	=59
1C	2r	2.c\	0g]
.	2c\	.	.
.	.	4d\	.
2r	2.c\	1e	.
2c\	.	.	.
.	4B-\	.	.
=60	=60	=60	=60
2.c\	2.A/	0c	2r
.	.	.	2cc\
4B-\	4G/	.	.
2.A\	1F	.	2.cc\
4G\	.	.	4b-\
=61	=61	=61	=61
2.F\	1A	1r	2.a/
4E\	.	.	4g/
2D\	2B-\	2r	2f/
2C/	2c\	2g\	4e/
.	.	.	4d/
=62	=62	=62	=62
1E	1G	2e\	4e/
.	.	.	4d/
.	.	2c\	1g
1D	1A	1d	.
.	.	.	2f#i/
=63	=63	=63	=63
1r	1G	0r	1g
2r	2d\	.	2a/
2d\	2f\	.	2b-\
=64	=64	=64	=64
2c\	2e\	0r	2cc\
2d\	2d\	.	1a
1e	2.c\	.	.
.	.	.	2g/
.	4B-\	.	.
=65	=65	=65	=65
2.f\	1A	2r	1a
.	.	2d\	.
8e\L	.	.	.
8f\J	.	.	.
4e\	1r	2c\	1r
4d\	.	.	.
[2d\	.	2d\	.
=66	=66	=66	=66
2d\]	0r	1e	1r
2c#i\	.	.	.
2d\	.	2.f\	2r
2D\	.	.	2dd\
.	.	8e\L	.
.	.	8f\J	.
=67	=67	=67	=67
2A\	0r	4e\	2cc\
.	.	4d\	.
2F\	.	1d	2dd\
2G\	.	.	1ee
2A\	.	2c#i\	.
=68	=68	=68	=68
4D\	2r	2d\	2.ff\
4E\	.	.	.
4F\	2d\	1a	.
4G\	.	.	8ee\L
.	.	.	8ff\J
2A\	2c\	.	4ee\
.	.	.	4dd\
2B-\	2d\	2g\	[2dd\
=69	=69	=69	=69
1A	1e	2a\	2dd\]
.	.	2a\	2cc#i\
2.d\	2.f\	2.b-\	1dd
4d\	8e\L	8a\L	.
.	8f\J	8b-\J	.
=70	=70	=70	=70
2c\	4e\	4a\	1r
.	4d\	4g\	.
2B-\	1d	1g	.
1A	.	.	2r
.	2c\	2f#i\	2cc\
=71	=71	=71	=71
1G	1d	1g	2b-\
.	.	.	2.dd\
1F	2r	1r	.
.	.	.	4cc\
.	[2d\	.	2a/
=72	=72	=72	=72
1G	2d\]	0r	1b-
.	2d\	.	.
1A	2.c\	.	1a
.	4B-\	.	.
=73	=73	=73	=73
2r	2A/	0r	0r
1d	2G/	.	.
.	2F/	.	.
2d\	2G/	.	.
=74	=74	=74	=74
2.c\	1A	0r	1r
4B-\	.	.	.
2A\	1r	.	2r
2G\	.	.	[2dd\
=75	=75	=75	=75
2F\	2r	2r	2dd\]
2G\	2B-\	2g\	2dd\
2.A\	2A/	2e\	2.cc\
.	[2c\	[2f\	.
4G\	.	.	4b-\
=76	=76	=76	=76
2F\	4c\]	4f\]	2a/
.	4B-\	4e\	.
2E\	2G/	2c\	2g/
1D	1A	1d	4f/
.	.	.	4g/
.	.	.	4a/
.	.	.	4b-\
=77	=77	=77	=77
1r	0r	2c\	2cc\
.	.	2d\	1a
2r	.	1B-	.
2G\	.	.	2g/
=78	=78	=78	=78
1F	1A	1A	2a/
.	.	.	2cc\
2E\	1c	1r	2cc\
2E\	.	.	2cc\
=79	=79	=79	=79
2D\	1d	1r	2.b-\
1G	.	.	.
.	.	.	8a/L
.	.	.	8g/J
.	2d\	2r	2b-\
2A\	[2c\	2A/	[2a/
=80	=80	=80	=80
2F\	4c\]	1c	4a/]
.	4B-\	.	4g/
2E\	2G/	.	1g
1D	2A/	1d	.
.	2A/	.	2f#i/
=81	=81	=81	=81
2r	1G	4B-\	4g/
.	.	4c\	4a/
1d	.	4d\	4b-\
.	.	4e\	4cc\
.	1r	2f\	2dd\
[2c\	.	[2g\	[2ee\
=82	=82	=82	=82
4c\]	0r	2g\]	4ee\]
4B-\	.	.	4dd\
2G\	.	2b-\	1gg
1d	.	1a	.
.	.	.	2ff#i\
=83	=83	=83	=83
1G	0r	0g	2.gg\
.	.	.	4ff\
1r	.	.	2ee\
.	.	.	2dd\
=84	=84	=84	=84
1E	0r	2r	2cc\
.	.	2.g\	4b-\
.	.	.	4a/
1G	.	.	1b-
.	.	4f\	.
.	.	4e\	.
.	.	4d\	.
=85	=85	=85	=85
1A	0r	2.c\	2a/
.	.	.	2.cc\
.	.	4d\	.
2A\	.	4e\	.
.	.	8d\L	4b-\
.	.	8e\J	.
2D\	.	[2f\	4a/
.	.	.	4g/
=86	=86	=86	=86
1F	1A	2f\]	2f/
.	.	2F/	2a/
1E	1c	1G	1g
=87	=87	=87	=87
1.D	1d	2.A/	2f/
.	.	.	2.ff\
.	.	4G/	.
.	2d\	2A/	.
.	.	.	4ee\
[2G\	2G/	2B-\	4dd\
.	.	.	4cc\
=88	=88	=88	=88
1G]	1B-	2G/	2.b-\
.	.	2.g\	.
.	.	.	4a/
1C	1c	.	2g/
.	.	4f\	.
.	.	2e\	2a/
=89	=89	=89	=89
2D\	2A/	2d\	2f/
2E\	2G/	2c\	1g
1D	1A	1d	.
.	.	.	2f#i/
=90	=90	=90	=90
0Gl	0Gl	0dl	0gl
!!LO:LB:i:g=z
=91||	=91||	=91||	=91||
*>B	*>B	*>B	*>B
*clefF4	*clefGv2	*clefGv2	*clefG2
*k[b-]	*k[b-]	*k[b-]	*k[b-]
*M2/1	*M2/1	*M2/1	*M2/1
*met(C|)	*met(C|)	*met(C|)	*met(C|)
!!section: Qui propter nos
!!!OMD: Qui propter nos
0r	0r	0r	1dd
.	.	.	1cc
=92	=92	=92	=92
0r	0r	0r	1dd
.	.	.	2dd\
.	.	.	[2ff\
=93	=93	=93	=93
0r	0r	1d	2ff\]
.	.	.	4ee\
.	.	.	4dd\
.	.	1c	2ee\
.	.	.	2ee\
=94	=94	=94	=94
0r	0r	1d	1.dd
.	.	2d\	.
.	.	[2f\	4cc\
.	.	.	4b-\
=95	=95	=95	=95
0r	1d	2f\]	2a/
.	.	4e\	2b-\
.	.	4d\	.
.	1c	2e\	1cc
.	.	2e\	.
=96	=96	=96	=96
0r	1d	1.d	0f
.	2d\	.	.
.	[2f\	4c\	.
.	.	4B-\	.
=97	=97	=97	=97
1D	2f\]	2.A/	1r
.	4e\	.	.
.	4d\	4B-\	.
1C	2e\	1c	1g
.	2e\	.	.
=98	=98	=98	=98
1D	1.d	1A	2f/
.	.	.	2d/
2D\	.	2r	2.f/
[2F\	4c\	[2A/	.
.	4B-\	.	4g/
=99	=99	=99	=99
2F\]	2A/	2A/]	2a/
4E\	1d	4G/	2b-\
4D\	.	4F/	.
2E\	.	1G	1g
2E\	2c#i\	.	.
=100	=100	=100	=100
[0D	[0d	1A	[0f
.	.	2r	.
.	.	2a\	.
=101	=101	=101	=101
0D]	0d]	2a\	0f]
.	.	2a\	.
.	.	1a	.
=102	=102	=102	=102
0r	0r	2.d\	2r
.	.	.	2dd\
.	.	4e\	.
.	.	2f\	2dd\
.	.	[2g\	2dd\
=103	=103	=103	=103
0r	0r	2g\]	1dd
.	.	2f\	.
.	.	2.g\	2.g/
.	.	8f\L	4a/
.	.	8e\J	.
=104	=104	=104	=104
0r	0r	2d\	2b-\
.	.	2c\	1cc
.	.	1d	.
.	.	.	2bni\
=105	=105	=105	=105
2r	0r	2c\	1cc
2A\	.	1f	.
2A\	.	.	2a/
2A\	.	4e\	[2cc\
.	.	4d\	.
=106	=106	=106	=106
1A	1r	1e	4cc\]
.	.	.	4b-\
.	.	.	4a/
.	.	.	4g/
2.D\	2r	1d	1f
.	2d\	.	.
4E\	.	.	.
=107	=107	=107	=107
2F\	2d\	0r	0r
1G	2d\	.	.
.	1d	.	.
2F\	.	.	.
=108	=108	=108	=108
2.B-\	2.G/	2r	2r
.	.	2d\	2dd\
4A\	4A/	.	.
2G\	2B-\	1g	2dd\
4F\	[2c\	.	2dd\
4E\	.	.	.
=109	=109	=109	=109
1D	2c\]	1f	1dd
.	2Bni\	.	.
2C/	2c\	2e\	2.g/
2c\	2e\	[2g\	.
.	.	.	4a/
=110	=110	=110	=110
2B-\	2d\	2g\]	2b-\
2A\	2c\	2f\	1cc
1G	1d	1g	.
.	.	.	2bni\
=111	=111	=111	=111
0C	0c	2r	0cc
.	.	1g	.
.	.	2a\	.
=112	=112	=112	=112
0r	0r	4g\	2r
.	.	4f\	.
.	.	4e\	1cc
.	.	4d\	.
.	.	1f	.
.	.	.	2dd\
=113	=113	=113	=113
0r	0r	4e\	4cc\
.	.	4d\	4b-\
.	.	4c\	4a/
.	.	4B-\	4g/
.	.	1d	2b-\
.	.	.	[2a/
=114	=114	=114	=114
0r	0r	4c\	4a/]
.	.	4B-\	4g/
.	.	4A/	1g
.	.	4G/	.
.	.	1A	.
.	.	.	2f#i/
=115	=115	=115	=115
0r	0r	1G	0g
.	.	1r	.
=116	=116	=116	=116
0G	2r	0r	0r
.	4G/	.	.
.	4A/	.	.
.	4B-\	.	.
.	4c\	.	.
.	4d\	.	.
.	4e\	.	.
=117	=117	=117	=117
1F	2.f\	0r	0r
.	4e\	.	.
1G	4d\	.	.
.	4c\	.	.
.	[2e\	.	.
=118	=118	=118	=118
1F	4e\]	1r	0r
.	4d\	.	.
.	1d	.	.
1E	.	1g	.
.	2c#i\	.	.
=119	=119	=119	=119
[0D	[0d	0b-	1r
.	.	.	1dd
=120	=120	=120	=120
0D]	0d]	0a	0ff
=121	=121	=121	=121
0r	0r	1g	1ee
.	.	1b-	2.dd\
.	.	.	4ee\
=122	=122	=122	=122
0r	0r	2a\	2ff\
.	.	2g\	1gg
.	.	1a	.
.	.	.	2ff#i\
=123	=123	=123	=123
1r	0r	1g	2gg\
.	.	.	2.g/
1G	.	2d\	.
.	.	.	4a/
.	.	2g\	4b-\
.	.	.	4cc\
=124	=124	=124	=124
0B-	1r	0f	0dd
.	1d	.	.
=125	=125	=125	=125
2A\	0f	0r	0r
4D\	.	.	.
4E\	.	.	.
4F\	.	.	.
4G\	.	.	.
4A\	.	.	.
4B-\	.	.	.
=126	=126	=126	=126
4c\	1e	0r	0r
4d\	.	.	.
4e\	.	.	.
8d\L	.	.	.
8e\J	.	.	.
2f\	2.d\	.	.
[2d\	.	.	.
.	4e\	.	.
=127	=127	=127	=127
2d\]	2f\	0r	0r
4c\	1g	.	.
4B-\	.	.	.
1A	.	.	.
.	2f#i\	.	.
=128	=128	=128	=128
0G	0g	2r	1.gg
.	.	1d	.
.	.	2d\	2ff\
=129	=129	=129	=129
1.c	0r	2.e\	1ee
.	.	4f\	.
.	.	1g	1dd
2B-\	.	.	.
=130	=130	=130	=130
1A	1.f	1c	2cc\
.	.	.	2a/
1G	.	1d	2b-\
.	2e\	.	2g/
=131	=131	=131	=131
2F\	1d	2r	2a/
2G\	.	2g\	2b-\
1A	1c	2e\	4cc\
.	.	.	4dd\
.	.	2c\	4ee\
.	.	.	4ff\
=132	=132	=132	=132
0G	2B-\	1g	2dd\
.	2c\	.	1cc
.	1d	1g	.
.	.	.	2bni\
=133	=133	=133	=133
0C;	0c;	0g;	0cc;
=134	=134	=134	=134
3%4GV	3%4dV	3%4gV	3%4b-V
3%2AZ	3%2cZ	3%2fZ	3%2aZ
=135	=135	=135	=135
3%2GV	3%2dV	3%2gV	3%2b-V
3A\	3%2c	3%2f	3%2a
3F\	.	.	.
3%2GZ	3%2B-Z	3%2eZ	3%2gZ
=136	=136	=136	=136
0D;	0A;	0d;	0f;
=137	=137	=137	=137
0r	0r	1G	0r
.	.	1F	.
=138	=138	=138	=138
1G	0r	1G	0r
2F\	.	2A/	.
[2G\	.	[2B-\	.
=139	=139	=139	=139
2G\]	0r	4B-\]	1r
.	.	4A/	.
2A\	.	1A	.
1B-	.	.	1dd
.	.	2G/	.
=140	=140	=140	=140
1A	1r	1.A	1cc
1D	1d	.	1dd
.	.	4G/	.
.	.	4F/	.
=141	=141	=141	=141
2r	2c\	2E/	2ee\
1D	1d	2D/	2.ff\
.	.	2BB-/	.
.	.	.	4ee\
2C/	2e\	2C/	[2ee\
=142	=142	=142	=142
1D	1f	1AA	2ee\]
.	.	.	2dd\
1A	1c	2r	1ee
.	.	[2A/	.
=143	=143	=143	=143
2r	2r	2A/]	2.cc\
1A	2f\	2A/	.
.	.	.	4dd\
.	2e\	2A/	4ee\
.	.	.	4dd\
2A\	2A/	2A/	2ff\
=144	=144	=144	=144
2A\	2c\	1A	2ee\
2A\	2d\	.	1dd
1A	1e	1A	.
.	.	.	2cc#i\
=145	=145	=145	=145
1D	0d	2r	1dd
.	.	2.A/	.
1r	.	.	2r
.	.	4G/	.
.	.	2F/	[2a/
=146	=146	=146	=146
2r	2.c\	1.E	2a/]
1A	.	.	2a/
.	4d\	.	.
.	4e\	.	2a/
.	4d\	.	.
2A\	2f\	2AA/	2a/
=147	=147	=147	=147
2A\	2e\	2C/	1a
2A\	1d	2D/	.
1A	.	1E	1a
.	2c#i\	.	.
=148	=148	=148	=148
0D	2d\	1.D	2.f/
.	2.f\	.	.
.	.	.	4g/
.	.	.	2a/
.	4e\	.	.
.	4d\	[2F/	2b-\
.	4c\	.	.
=149	=149	=149	=149
1r	2d\	4F/]	2a/
.	.	4E/	.
.	2B-\	4D/	1g
.	.	4C/	.
1D	1A	1D	.
.	.	.	2f#i/
=150	=150	=150	=150
2E\	1G	1r	1g
1G	.	.	.
.	1r	1A	1r
2F\	.	.	.
=151	=151	=151	=151
1G	0r	1D	1dd
1r	.	2E/	1g
.	.	[2G/	.
=152	=152	=152	=152
0r	0r	2G/]	2a/
.	.	2F/	1cc
.	.	1G	.
.	.	.	2b-\
=153	=153	=153	=153
0r	0r	1C	1cc
.	.	1D	1f
=154	=154	=154	=154
1r	0r	1C	1g
1A	.	1r	1f
=155	=155	=155	=155
1D	1d	2r	0r
.	.	2F/	.
2E\	1G	2G/	.
[2G\	.	2D/	.
=156	=156	=156	=156
2G\]	2A/	2E/	1r
2F\	1c	2F/	.
1G	.	1D	2r
.	2Bni\	.	2dd\
=157	=157	=157	=157
1C	1c	2C/	2ee\
.	.	1G	1cc
1D	1F	.	.
.	.	[2F/	2b-\
=158	=158	=158	=158
1C	1G	2F/]	1cc
.	.	2E/	.
1r	2.F/	1F	1a
.	4G/	.	.
=159	=159	=159	=159
1F	4A/	2r	1f
.	4B-\	.	.
.	2.c\	1A	.
1E	.	.	1r
.	4B-\	.	.
.	2G/	[2G/	.
=160	=160	=160	=160
1D	1A	2G/]	0r
.	.	2F/	.
1G	1G	2G/	.
.	.	[2E/	.
=161	=161	=161	=161
2F\	0r	2E/]	0r
2G\	.	1D	.
1E	.	.	.
.	.	2C#i/	.
=162	=162	=162	=162
0D	0r	1D	1b-
.	.	1r	1a
=163	=163	=163	=163
0r	1B-	2r	1g
.	.	1G	.
.	1A	.	1cc
.	.	2F/	.
=164	=164	=164	=164
2r	1G	2.G/	2.b-\
1G	.	.	.
.	.	4F/	4a/
.	1c	4E/	4g/
.	.	4D/	4f/
2F\	.	2F/	[2a/
=165	=165	=165	=165
2G\	2B-\	2D/	4a/]
.	.	.	4g/
2C/	2c\	2E/	1g
1D	1A	1D	.
.	.	.	2f#i/
=166	=166	=166	=166
1B-	1G	2r	1g
.	.	2D/	.
1A	2r	2E/	1r
.	2c\	2F/	.
=167	=167	=167	=167
1G	1d	2.G/	0r
.	.	4F/	.
1c	1e	2G/	.
.	.	2A/	.
=168	=168	=168	=168
2.B-\	1f	1B-	0r
4A\	.	.	.
2B-\	2d\	2G/	.
[2c\	[2e\	[2A/	.
=169	=169	=169	=169
4c\]	4e\]	4A/]	1r
4B-\	4d\	4G/	.
4A\	4c\	1G	.
4G\	4B-\	.	.
1A	2c\	.	1cc
.	2c\	2F#i/	.
=170	=170	=170	=170
0Gl	0dl	0Gl	0b-l
!!LO:LB:i:g=z
=171||	=171||	=171||	=171||
*>C	*>C	*>C	*>C
*clefF4	*clefGv2	*clefGv2	*clefG2
*k[b-]	*k[b-]	*k[b-]	*k[b-]
*M2/1	*M2/1	*M2/1	*M2/1
*met(C|)	*met(C|)	*met(C|)	*met(C|)
!!section: Et resurrexit
!!!OMD: Et resurrexit
0G	0r	0r	0r
=172	=172	=172	=172
1F	0r	0r	0r
2.D\	.	.	.
4E\	.	.	.
=173	=173	=173	=173
2F\	0r	0r	0r
1G	.	.	.
2F\	.	.	.
=174	=174	=174	=174
2G\	0r	0g	0r
4C/	.	.	.
4D\	.	.	.
4E\	.	.	.
4F\	.	.	.
4G\	.	.	.
4A\	.	.	.
=175	=175	=175	=175
4B-\	0r	1f	0r
4c\	.	.	.
4d\	.	.	.
4e\	.	.	.
4f\	.	2.d\	.
4e\	.	.	.
4d\	.	.	.
4c\	.	4e\	.
=176	=176	=176	=176
4B-\	0r	2f\	0r
4A\	.	.	.
4B-\	.	1g	.
4c\	.	.	.
1A	.	.	.
.	.	2f#i\	.
=177	=177	=177	=177
2r	0r	2g\	0gg
2.G\	.	4G/	.
.	.	4A/	.
.	.	4B-\	.
4A\	.	4c\	.
4B-\	.	4d\	.
4c\	.	4e\	.
=178	=178	=178	=178
1d	0r	4f\	1ff
.	.	4g\	.
.	.	4a\	.
.	.	8g\L	.
.	.	8a\J	.
2r	.	1b-	2.dd\
2G\	.	.	.
.	.	.	4ee\
=179	=179	=179	=179
2d\	0r	2a\	2ff\
2G\	.	2g\	1gg
1d	.	1a	.
.	.	.	2ff#i\
=180	=180	=180	=180
0G	0g	1g	2gg\
.	.	.	4g/
.	.	.	4a/
.	.	4G/	4b-\
.	.	4A/	4cc\
.	.	4B-\	4dd\
.	.	4c\	4ee\
=181	=181	=181	=181
[0D	1f	4d\	2ff\
.	.	4e\	.
.	.	4f\	1dd
.	.	4g\	.
.	2.d\	2a\	.
.	.	[2f\	4cc\
.	4e\	.	4b-\
=182	=182	=182	=182
0D]	2f\	4f\]	4a/
.	.	4e\	4g/
.	1g	1.d	2b-\
.	.	.	1a
.	2f#i\	.	.
=183	=183	=183	=183
1G	1g	1d	1g
1r	1r	2r	2.a/
.	.	2d\	.
.	.	.	4b-\
=184	=184	=184	=184
0r	0r	2c\	2cc\
.	.	2d\	1b-
.	.	1A	.
.	.	.	[2a/
=185	=185	=185	=185
2r	2.d\	1B-	2a/]
2G\	.	.	2g/
.	4e\	.	.
2F\	2f\	1A	1a
[2A\	[2e\	.	.
=186	=186	=186	=186
4A\]	2e\]	0r	0r
4D\	.	.	.
2F\	1d	.	.
1E	.	.	.
.	2c#i\	.	.
=187	=187	=187	=187
1D	1d	2r	2.dd\
.	.	2a\	.
.	.	.	4ee\
1r	1r	2f\	2ff\
.	.	2g\	[2ee\
=188	=188	=188	=188
0r	0r	1d	2ee\]
.	.	.	1dd
.	.	1e	.
.	.	.	2cc#i\
=189	=189	=189	=189
2r	2r	4d\	1dd
.	.	4e\	.
2d\	2d\	4f\	.
.	.	4g\	.
2c\	2e\	2a\	1r
2d\	[2f\	[2b-\	.
=190	=190	=190	=190
1A	4f\]	4b-\]	2r
.	4e\	4a\	.
.	1e	1a	2cc\
1B-	.	.	1dd
.	2d\	2g\	.
=191	=191	=191	=191
1A	1e	4a\	4cc\
.	.	4g\	4b-\
.	.	4f\	4a/
.	.	4e\	4g/
1r	1r	2d\	2b-\
.	.	4c\	[2a/
.	.	4B-\	.
=192	=192	=192	=192
0r	1r	4A/	2a/]
.	.	4G/	.
.	.	2B-\	1g
.	2r	1A	.
.	2c\	.	2f#i/
=193	=193	=193	=193
2r	1d	1G	1g
2G\	.	.	.
1A	4c\	2r	1r
.	4B-\	.	.
.	4A/	2c\	.
.	4G/	.	.
=194	=194	=194	=194
2D\	2B-\	1d	0r
2D\	2A/	.	.
1E	2G/	2G/	.
.	[2g\	2G/	.
=195	=195	=195	=195
2.D\	2g\]	1A	1r
.	2f\	.	.
4F\	.	.	.
1E	1g	2G/	2r
.	.	2g\	2cc\
=196	=196	=196	=196
2D\	1r	2f\	1dd
2G\	.	2g\	.
1A	2r	1e	4cc\
.	.	.	4b-\
.	2c\	.	4a/
.	.	.	4g/
=197	=197	=197	=197
2D\	1d	1d	2b-\
2D\	.	.	2.a/
1E	2G/	1r	.
.	.	.	4g/
.	2G/	.	[2g/
=198	=198	=198	=198
1D	1A	2r	2g/]
.	.	2d\	2f#i/
1r	1G	1e	2g/
.	.	.	2g/
=199	=199	=199	=199
0r	0r	1f	1a
.	.	1g	1b-
=200	=200	=200	=200
0r	0r	2r	1cc
.	.	2f\	.
.	.	1g	2r
.	.	.	2b-\
=201	=201	=201	=201
2r	1r	1a	1cc
2A\	.	.	.
1B-	2r	1r	1dd
.	2d\	.	.
=202	=202	=202	=202
1c	1e	0r	0r
1d	1f	.	.
=203	=203	=203	=203
2r	1g	0r	0r
2c\	.	.	.
1d	2r	.	.
.	2f\	.	.
=204	=204	=204	=204
1e	1g	1r	0r
2.f\	2a\	2r	.
.	[2d\	2d\	.
4e\	.	.	.
=205	=205	=205	=205
2f\	4d\]	1d	0r
.	4c\	.	.
1d	2B-\	.	.
.	1A	1e	.
2c#i\	.	.	.
=206	=206	=206	=206
1.d	1a	2.f\	1r
.	.	4e\	.
.	1r	2f\	2r
2G\	.	2g\	2dd\
=207	=207	=207	=207
2d\	0r	4f\	1dd
.	.	4e\	.
2B-\	.	1d	.
1A	.	.	1ee
.	.	2c#i\	.
=208	=208	=208	=208
1D	1r	1.d	2.ff\
.	.	.	4ee\
1r	2r	.	2ff\
.	2d\	2G/	2gg\
=209	=209	=209	=209
0r	1d	2d\	4ff\
.	.	.	4ee\
.	.	2B-\	1dd
.	1e	1A	.
.	.	.	2cc#i\
=210	=210	=210	=210
2r	2.f\	2r	1dd
1D	.	1d	.
.	4e\	.	.
.	2f\	.	1r
2E\	2g\	2c\	.
=211	=211	=211	=211
2F\	4f\	2A/	2r
.	4e\	.	.
2G\	1d	2B-\	1g
1E	.	2G/	.
.	2c\	2c\	4g/
.	.	.	4f/
=212	=212	=212	=212
0D	[0d	2B-\	2f/
.	.	4A/	1g
.	.	4G/	.
.	.	1A	.
.	.	.	2f#i/
=213	=213	=213	=213
0G	0d]	1G	1g
.	.	1g	2r
.	.	.	[2dd\
=214	=214	=214	=214
0r	0r	2f\	2dd\]
.	.	2e\	2cc\
.	.	2d\	2b-\
.	.	2c\	2a/
=215	=215	=215	=215
0r	0r	2B-\	2g/
.	.	2c\	2a/
.	.	2d\	2b-\
.	.	2e\	2cc\
=216	=216	=216	=216
1r	0r	2f\	2a/
.	.	2g\	1dd
1A	.	2e\	.
.	.	2e\	2cc#i\
=217	=217	=217	=217
2r	0r	0d	0dd
2.D\	.	.	.
4E\	.	.	.
2F\	.	.	.
=218	=218	=218	=218
4G\	0r	0r	1dd
4A\	.	.	.
4B-\	.	.	.
4c\	.	.	.
4A\	.	.	2cc\
4G\	.	.	.
[2B-\	.	.	[2dd\
=219	=219	=219	=219
4B-\]	0r	0r	4dd\]
4A\	.	.	4a/
1A	.	.	2cc\
.	.	.	1b-
2G\	.	.	.
=220	=220	=220	=220
0A	0r	2r	0a
.	.	4A/	.
.	.	4B-\	.
.	.	4c\	.
.	.	4d\	.
.	.	4e\	.
.	.	4f\	.
=221	=221	=221	=221
1G	0r	4g\	0r
.	.	4f\	.
.	.	4e\	.
.	.	4d\	.
2F\	.	2f\	.
[2G\	.	[2e\	.
=222	=222	=222	=222
4G\]	0r	4e\]	0r
4D\	.	4d\	.
2F\	.	1d	.
1E	.	.	.
.	.	2c#i\	.
=223	=223	=223	=223
4D\	0r	1d	2r
4E\	.	.	.
4F\	.	.	4a/
4G\	.	.	4b-\
4A\	.	1r	4cc\
4B-\	.	.	4dd\
4c\	.	.	4ee\
4d\	.	.	4ff\
=224	=224	=224	=224
1e	1g	2r	4gg\
.	.	.	4ff\
.	.	2c\	4ee\
.	.	.	4dd\
2d\	2f\	2d\	2ff\
[2c\	[2g\	[2e\	[2ee\
=225	=225	=225	=225
4c\]	2g\]	2e\]	4ee\]
4B-\	.	.	4dd\
2d\	2f\	1.a	1dd
1A	1e	.	.
.	.	.	2cc#i\
=226	=226	=226	=226
0D	0d	2f\	0dd
.	.	2.d\	.
.	.	4c\	.
.	.	2A/	.
=227	=227	=227	=227
2r	1G	1B-	0r
2G\	.	.	.
2.A\	4F/	2.c\	.
.	4G/	.	.
.	4A/	.	.
4G\	4B-\	4B-\	.
=228	=228	=228	=228
2F\	2c\	2A/	0r
2D\	2d\	2F/	.
2E\	2d\	1G	.
2E\	2c#i\	.	.
=229	=229	=229	=229
1D	1d	1A	0r
1r	2r	1B-	.
.	2d\	.	.
=230	=230	=230	=230
2r	2c\	[0A	0r
1D	2d\	.	.
.	1e	.	.
2C/	.	.	.
=231	=231	=231	=231
2.D\	2f\	0A]	0r
.	1d	.	.
4E\	.	.	.
4F\	.	.	.
4E\	.	.	.
[2F\	2c\	.	.
=232	=232	=232	=232
2F\]	1d	2r	0r
4E\	.	1d	.
4D\	.	.	.
1E	1r	.	.
.	.	2c\	.
=233	=233	=233	=233
1D	2r	2.d\	0r
.	1f	.	.
.	.	4e\	.
2r	.	4f\	.
.	.	4e\	.
[2d\	2d\	[2f\	.
=234	=234	=234	=234
2d\]	2f\	2f\]	2r
4c\	2g\	4e\	1dd
4B-\	.	4d\	.
1A	1a	1e	.
.	.	.	2cc\
=235	=235	=235	=235
0D	2f\	0d	2.dd\
.	2.a\	.	.
.	.	.	4ee\
.	.	.	4ff\
.	4g\	.	4ee\
.	4f\	.	[2ff\
.	4e\	.	.
=236	=236	=236	=236
2r	1d	1r	2ff\]
1d	.	.	4ee\
.	.	.	4dd\
.	1r	1a	1ee
2c\	.	.	.
=237	=237	=237	=237
2.d\	0r	1a	2r
.	.	.	2dd\
4e\	.	.	.
4f\	.	1a	2dd\
4e\	.	.	.
[2f\	.	.	4cc\
.	.	.	4b-\
=238	=238	=238	=238
2f\]	0r	1a	2a/
4e\	.	.	1dd
4d\	.	.	.
1e	.	1g	.
.	.	.	2cc\
=239	=239	=239	=239
2d\	0r	0a	2dd\
2D\	.	.	2ff\
1A	.	.	1ee
=240	=240	=240	=240
1D	1d	0r	1dd
2E\	1G	.	1r
[2G\	.	.	.
=241	=241	=241	=241
2G\]	2A/	1a	1r
2F\	1c	.	.
1G	.	1d	1dd
.	2Bni\	.	.
=242	=242	=242	=242
0r	1c	2e\	1g
.	.	1g	.
.	1r	.	2a/
.	.	2f\	[2cc\
=243	=243	=243	=243
1G	1r	1g	2cc\]
.	.	.	2b-\
1A	1c	1r	1cc
=244	=244	=244	=244
2G\	1d	1r	0r
2F\	.	.	.
1E	2c\	1g	.
.	2B-\	.	.
=245	=245	=245	=245
0r	1A	1a	1cc
.	1r	2g\	1dd
.	.	2f\	.
=246	=246	=246	=246
1r	0r	1e	2cc\
.	.	.	2b-\
[1c	.	2r	1a
.	.	[2a\	.
=247	=247	=247	=247
1c]	0r	2a\]	0r
.	.	4g\	.
.	.	4f\	.
1c	.	1g	.
=248	=248	=248	=248
1d	0r	2.f\	0r
.	.	4g\	.
2c\	.	4a\	.
.	.	4g\	.
[2d\	.	[2b-\	.
=249	=249	=249	=249
4d\]	0r	2b-\]	0r
4A\	.	.	.
2c\	.	1a	.
2B-\	.	.	.
2B-\	.	2g\	.
=250	=250	=250	=250
1A	1r	0a	1cc
2r	[1c	.	2a/
2A\	.	.	[2cc\
=251	=251	=251	=251
2.F\	1c]	0r	2cc\]
.	.	.	4b-\
4G\	.	.	4a/
1E	1c	.	1g
=252	=252	=252	=252
1D	1d	1r	4f/
.	.	.	4g/
.	.	.	4a/
.	.	.	4b-\
2r	2c\	2r	2cc\
[2G\	[2d\	[2g\	[2b-\
=253	=253	=253	=253
4G\]	4d\]	4g\]	4b-\]
4A\	4A/	4e\	4a/
2F\	2c\	2f\	1a
1G	2B-\	1d	.
.	2B-\	.	2g/
=254	=254	=254	=254
0D	0A	1r	0a
.	.	2r	.
.	.	[2d\	.
=255	=255	=255	=255
1G	0r	2d\]	0r
.	.	1e	.
1A	.	.	.
.	.	[2f\	.
=256	=256	=256	=256
1B-	0r	2f\]	1r
.	.	2.g\	.
2.c\	.	.	2r
.	.	4f\	.
.	.	4e\	2g/
4B-\	.	4d\	.
=257	=257	=257	=257
4A\	1r	2c\	1a
4G\	.	.	.
2F\	.	1f	.
1G	2r	.	1b-
.	2G/	2e\	.
=258	=258	=258	=258
2F\	1A	1f	2a/
2D\	.	.	1a
1G	1B-	1d	.
.	.	.	2g/
=259	=259	=259	=259
1D	0A	2r	1a
.	.	2d\	.
2r	.	2c\	1f
2D\	.	2d\	.
=260	=260	=260	=260
2G\	2G/	2B-\	0r
2E\	2c\	2G/	.
2F\	2A/	2r	.
2G\	[2B-\	2d\	.
=261	=261	=261	=261
1E	2B-\]	2g\	0r
.	2c\	2e\	.
2D\	2A/	2f\	.
2G\	2G/	2g\	.
=262	=262	=262	=262
2c\	2r	2e\	1r
2A\	2c\	1a	.
2B-\	2d\	.	2r
2c\	2e\	[2g\	2g/
=263	=263	=263	=263
1A	1c	2g\]	2cc\
.	.	2f\	2a/
1G	2d\	2g\	2.b-\
.	[2g\	2G/	.
.	.	.	4cc\
=264	=264	=264	=264
2r	2g\]	1d	1a
2D\	2f#i\	.	.
2G\	1g	2G/	1g
2E\	.	2c\	.
=265	=265	=265	=265
2F\	0r	2A/	2r
2G\	.	1B-	2dd\
2E\	.	.	2gg\
2E\	.	2c\	2ee\
=266	=266	=266	=266
1D	2r	1A	2.ff\
.	2d\	.	.
.	.	.	4gg\
1C	2g\	1r	1ee
.	2e\	.	.
=267	=267	=267	=267
1D	2.f\	2r	2dd\
.	.	2.A/	1dd
.	4g\	.	.
1A	2e\	.	.
.	.	4B-\	.
.	2e\	2c\	2cc\
=268	=268	=268	=268
1r	0d	4B-\	2.dd\
.	.	4G/	.
.	.	1g	.
.	.	.	4cc\
2r	.	.	2b-\
2D\	.	2f\	2a/
=269	=269	=269	=269
2G\	1r	1g	2g/
2E\	.	.	2cc\
2F\	2r	1r	2a/
2G\	2d\	.	[2b-\
=270	=270	=270	=270
1E	2g\	1r	2b-\]
.	2e\	.	2cc\
1D	2.f\	2r	1a
.	.	2d\	.
.	4g\	.	.
=271	=271	=271	=271
1r	1e	2g\	0r
.	.	2e\	.
2r	1d	2.f\	.
2D\	.	.	.
.	.	4g\	.
=272	=272	=272	=272
2G\	2G/	1e	1r
2E\	2B-\	.	.
2F\	2A/	1d	2r
2G\	[2d\	.	2dd\
=273	=273	=273	=273
1E	2d\]	0r	2gg\
.	2c\	.	2ee\
2r	1d	.	2.ff\
2D\	.	.	.
.	.	.	4gg\
=274	=274	=274	=274
2G\	2G/	2r	1ee
2E\	2c\	2g\	.
2F\	2A/	2f\	2dd\
2G\	[2B-\	[2d\	[2b-\
=275	=275	=275	=275
1E	2B-\]	2d\]	4b-\]
.	.	.	4a/
.	2c\	2c\	1g
1D	1A	1d	.
.	.	.	2f#i/
=276	=276	=276	=276
0G	1G	1r	1g
.	1g	2r	2r
.	.	[2B-\	[2dd\
=277	=277	=277	=277
0r	1f	2B-\]	2dd\]
.	.	1A	1cc
.	1e	.	.
.	.	[2G/	[2b-\
=278	=278	=278	=278
0r	1d	2G/]	2b-\]
.	.	1F	1a
.	1c	.	.
.	.	[2E/	[2g/
=279	=279	=279	=279
1G	1B-	4E/]	4g/]
.	.	4F/	4a/
.	.	2G/	4b-\
.	.	.	8a/L
.	.	.	8b-/J
1F	2A/	4A/	2cc\
.	.	4G/	.
.	[2c\	4A/	[2a/
.	.	4B-\	.
=280	=280	=280	=280
1E	4c\]	2.c\	4a/]
.	4B-\	.	4g/
.	2G/	.	1g
.	.	8B-\L	.
.	.	8c\J	.
1D	1A	1d	.
.	.	.	2f#i/
=281	=281	=281	=281
1d	1G	1r	0g
1c	1r	2r	.
.	.	[2g\	.
=282	=282	=282	=282
1B-	0r	2g\]	1dd
.	.	1f	.
1A	.	.	1cc
.	.	[2e\	.
=283	=283	=283	=283
1G	0r	2e\]	1b-
.	.	4d\	.
.	.	4e\	.
1F	.	4f\	2a/
.	.	4g\	.
.	.	[2a\	[2cc\
=284	=284	=284	=284
1E	0r	4a\]	4cc\]
.	.	4g\	4b-\
.	.	1g	2g/
1D	.	.	1a
.	.	2f#i\	.
=285	=285	=285	=285
1G	0r	2g\	1g
.	.	2.e\	.
1F	.	.	1r
.	.	4d\	.
.	.	[2d\	.
=286	=286	=286	=286
2E\	0r	2d\]	1gg
2E\	.	2c#i\	.
1D	.	1d	1ff
=287	=287	=287	=287
1r	1g	0r	2ee\
.	.	.	2ee\
1d	1f	.	1dd
=288	=288	=288	=288
1c	2e\	2r	0r
.	2e\	1g	.
2B-\	1d	.	.
2B-\	.	[2f\	.
=289	=289	=289	=289
1A	2r	2f\]	0r
.	2c\	2e\	.
2B-\	2d\	2d\	.
[2c\	[2e\	[2a\	.
=290	=290	=290	=290
4c\]	4e\]	2a\]	2r
4G\	4d\	.	.
2B-\	1d	1g	2g/
1A	.	.	2a/
.	2c\	2f#i\	2cc\
=291	=291	=291	=291
2G\	1d	1g	2b-\
1d	.	.	2.dd\
.	1r	1r	.
.	.	.	4cc\
2e-\	.	.	4b-\
.	.	.	4a/
=292	=292	=292	=292
2d\	1G	0r	4g/
.	.	.	4f/
2B-\	.	.	1b-
1c	1F	.	.
.	.	.	2a/
=293	=293	=293	=293
1B-	1G	1G	1b-
2A\	1A	1F	2cc\
4G\	.	.	4b-\
4F\	.	.	4a/
=294	=294	=294	=294
1E	1c	1G	2g/
.	.	.	2e/
2D\	1d	1A	2f/
2F\	.	.	[2a/
=295	=295	=295	=295
1E	1G	1c	4a/]
.	.	.	4g/
.	.	.	1g
1D	1A	2d\	.
.	.	2f\	2f#i/
=296	=296	=296	=296
[0Gl	[0Gl	2e\	[0gl
.	.	2d\	.
.	.	1e	.
=297	=297	=297	=297
0G]	0G]	0dl	0g]
!!LO:LB:i:g=z
=298||	=298||	=298||	=298||
*>D	*>D	*>D	*>D
*clefF4	*clefGv2	*clefGv2	*clefG2
*k[b-]	*k[b-]	*k[b-]	*k[b-]
*M3/1	*M3/1	*M3/1	*M3/1
*met(C|3)	*met(C|3)	*met(C|3)	*met(C|3)
!!section: Et unam sanctam
!!!OMD: Et unam sanctam
1.G	0.r	0g	0.r
2A\	.	.	.
2B-\	.	1g	.
2c\	.	.	.
=299	=299	=299	=299
1d	0.r	1f	0.r
1c	.	1e	.
1A	.	1f	.
=300	=300	=300	=300
1B-	0.r	1d	0.r
2c\	.	2e\	.
2G\	.	1g	.
1A	.	.	.
.	.	2f#i\	.
=301	=301	=301	=301
1.G	0g	1g	0gg
.	.	1d	.
2F\	.	.	.
1E	1g	1e	1gg
=302	=302	=302	=302
1D	1a	1f	1ff
1r	1g	1g	1ee
1r	1f	1a	1ff
=303	=303	=303	=303
0.r	1g	1b-	1dd
.	2e\	1g	2ee\
.	2e\	.	1gg
.	1d	1a	.
.	.	.	2ff#i\
=304	=304	=304	=304
1G	0.r	1g	1gg
1G	.	1r	1r
1E	.	1g	1gg
=305	=305	=305	=305
1.D	0.r	2a\	2ff\
.	.	2g\	2ee\
.	.	2f\	2dd\
2D\	.	2e\	2cc\
1D	.	2d\	1dd
.	.	2f\	.
=306	=306	=306	=306
1E-	1g	2e-\	2cc\
.	.	2d\	1b-
1F	2f\	1c	.
.	2e\	.	2a/
1G	2d\	1B-	1b-
.	2c\	.	.
=307	=307	=307	=307
1F	1d	1A	1r
2E\	2c\	2G/	1r
2D\	1B-	1F	.
1C	.	.	1cc
.	2A/	2E/	.
=308	=308	=308	=308
0.BB-	0.B-	0F	1.dd
.	.	.	2dd\
.	.	1f	1dd
=309	=309	=309	=309
0.r	0.r	1.g	2.g/
.	.	.	4a/
.	.	.	2b-\
.	.	2g\	1cc
.	.	1g	.
.	.	.	2b-\
=310	=310	=310	=310
0.r	1r	2.c\	1cc
.	.	4d\	.
.	1r	2e\	2b-\
.	.	1f	2a/
.	1c	.	1g
.	.	2e\	.
=311	=311	=311	=311
1r	1.d	1.f	0.f
1r	.	.	.
.	2d\	2g\	.
1F	1d	1a	.
=312	=312	=312	=312
1.G	2.G/	1g	0.r
.	4A/	.	.
.	2B-\	2.e\	.
2G\	1c	.	.
.	.	4f\	.
1G	.	1d	.
.	2B-\	.	.
=313	=313	=313	=313
2.C/	1c	1c	1.g
4D\	.	.	.
2E\	2B-\	1r	.
1F	2A/	.	2f/
.	1G	1r	1g
2E\	.	.	.
=314	=314	=314	=314
1F	0F	1r	1a
1r	.	2.c\	0cc
.	.	4d\	.
1A	1r	2e\	.
.	.	[2f\	.
=315	=315	=315	=315
1B-	1G	2f\]	1b-
.	.	2e\	.
1c	1F	1f	1a
1B-	1G	1d	1b-
=316	=316	=316	=316
0A	1A	1c	1cc
.	0c	1e	0a
1F	.	1f	.
=317	=317	=317	=317
1G	1B-	1d	1g
1A	1A	1c	1cc
1G	1B-	1d	1b-
=318	=318	=318	=318
1C	1c	1e	2g/
.	.	.	1a
0D	0A	0d	.
.	.	.	1g
.	.	.	2f#i/
=319	=319	=319	=319
1.B-	0G	0d	0g
2c\	.	.	.
1d	1r	1r	1r
=320	=320	=320	=320
0G	0.r	1b-	1dd
.	.	1g	1ee
1r	.	1a	1ff
=321	=321	=321	=321
1B-	1d	0g	0gg
1G	1e	.	.
1A	1f	1r	1r
=322	=322	=322	=322
1G	0.g	1r	1.dd
1B-	.	1.d	.
.	.	.	2ee-i\
1G	.	.	1dd
.	.	2e\	.
=323	=323	=323	=323
1A	0.r	1f	1cc
0G	.	1g	1.b-
.	.	2G/	.
.	.	2A/	2cc\
=324	=324	=324	=324
0.r	1g	2B-\	2dd\
.	.	2c\	2ee\
.	1a	2A/	1ff
.	.	2F/	.
.	1g	1c	1ee
=325	=325	=325	=325
0.r	2f\	2d\	2dd\
.	2g\	2c\	1ee
.	1d	1B-	.
.	.	.	1dd
.	1e	1A	.
.	.	.	2cc#i\
=326	=326	=326	=326
1G	1d	1B-	1dd
1A	1f	1c	1r
1G	1e	1B-	1r
=327	=327	=327	=327
2F\	2d\	2A/	0.r
2G\	1e	1B-	.
1D	.	.	.
.	1d	1A	.
1E	.	.	.
.	2c#i\	2G/	.
=328	=328	=328	=328
*M2/1	*M2/1	*M2/1	*M2/1
*met(C|)	*met(C|)	*met(C|)	*met(C|)
1D	1d	2A/	0r
.	.	2.d\	.
2r	2.D/	.	.
.	.	4e\	.
[2D\	.	4f\	.
.	4E/	4g\	.
=329	=329	=329	=329
4D\]	4F/	1a	0r
4E\	4G/	.	.
4F\	4A/	.	.
4G\	4B-\	.	.
2A\	2c\	1r	.
2B-\	2d\	.	.
=330	=330	=330	=330
2c\	2e\	0r	0r
2d\	2f\	.	.
4e\	2g\	.	.
4d\	.	.	.
4c\	[2a\	.	.
4B-\	.	.	.
=331	=331	=331	=331
2c\	4a\]	0r	0r
.	4g\	.	.
2G\	1g	.	.
1A	.	.	.
.	2f#i\	.	.
=332	=332	=332	=332
0G	0g	1r	1r
.	.	1g	1dd
=333	=333	=333	=333
1r	1r	2a\	2cc\
.	.	2f\	2a/
1G	1d	1g	2.b-\
.	.	.	4cc\
=334	=334	=334	=334
2A\	2c\	2e\	1a
2F\	2A/	2f\	.
1G	2.B-\	1d	1g
.	4c\	.	.
=335	=335	=335	=335
1D	1A	1r	2a/
.	.	.	2f/
1r	1G	2r	1g
.	.	2d\	.
=336	=336	=336	=336
1r	2A/	2c\	0r
.	2F/	2A/	.
2r	1G	2.B-\	.
2d\	.	.	.
.	.	4c\	.
=337	=337	=337	=337
2c\	0r	1A	1r
2A\	.	.	.
2.B-\	.	2G/	2r
.	.	[2g\	2dd\
4c\	.	.	.
=338	=338	=338	=338
2A\	1r	2g\]	2cc\
2A\	.	2f\	2a/
1G	2r	1g	2.b-\
.	2d\	.	.
.	.	.	4cc\
=339	=339	=339	=339
2A\	2c\	2r	1a
2F\	2A/	2d\	.
2G\	2B-\	2e\	2g/
2F\	2c\	2f\	[2a/
=340	=340	=340	=340
1E	1G	2g\	2a/]
.	.	2c\	1g
1D	1A	2d\	.
.	.	2f\	2f#i/
=341	=341	=341	=341
1r	2r	1e	0g
.	2G/	.	.
2r	2.B-\	1d	.
2G\	.	.	.
.	4c\	.	.
=342	=342	=342	=342
2.B-\	1d	[0G	2r
.	.	.	2g/
4c\	.	.	.
1d	2r	.	2.b-\
.	2G/	.	.
.	.	.	4cc\
=343	=343	=343	=343
2r	2.B-\	0G]	1dd
2G\	.	.	.
.	4c\	.	.
2.B-\	2d\	.	2r
.	2G/	.	2g/
4c\	.	.	.
=344	=344	=344	=344
2d\	2r	1r	2.b-\
2G\	1g	.	.
.	.	.	4cc\
2r	.	2r	1dd
[2d\	2f\	2d\	.
=345	=345	=345	=345
2d\]	2e\	1e	1r
2c\	2c\	.	.
2B-\	1d	2f\	2r
2G\	.	2g\	[2dd\
=346	=346	=346	=346
1A	1r	1e	2dd\]
.	.	.	2cc\
1r	2r	1d	2b-\
.	[2d\	.	4a/
.	.	.	4g/
=347	=347	=347	=347
2r	2d\]	2r	1a
1A	2c\	2e\	.
.	2B-\	2f\	1r
2G\	2G/	[2e\	.
=348	=348	=348	=348
2F\	1A	4e\]	2r
.	.	4d\	.
2D\	.	1d	2.a/
1E	1r	.	.
.	.	.	4f/
.	.	2c#i\	2g/
=349	=349	=349	=349
2D\	2r	1d	2.f/
2F\	1d	.	.
.	.	.	8e/L
.	.	.	8d/J
2G\	.	2r	4e/
.	.	.	4d/
2A\	2c\	2A/	[2a/
=350	=350	=350	=350
2D\	2B-\	2B-\	2a/]
2E\	2G/	2c\	1g
1D	1A	1d	.
.	.	.	2f#i/
=351	=351	=351	=351
0r	2G/	2r	2g/
.	2B-\	2b-\	2dd\
.	2f\	2a\	2cc\
.	2g\	2g\	2b-\
=352	=352	=352	=352
0r	2d\	2f\	2a/
.	2e\	2e\	2g/
.	1d	1f	1a
=353	=353	=353	=353
0r	2r	2r	2r
.	2B-\	2b-\	2dd\
.	2f\	2a\	2cc\
.	2g\	2g\	2b-\
=354	=354	=354	=354
0r	2d\	4f\	2a/
.	.	4d\	.
.	2e\	1g	2g/
.	1d	.	1a
.	.	2f#i\	.
=355	=355	=355	=355
2r	2G/	2g\	2g/
2BB-/	2d\	1f	2b-\
2F\	2c\	.	2a/
2G\	2B-\	2e\	2g/
=356	=356	=356	=356
2D\	2A/	2d\	2f/
2E\	2G/	2c\	2e/
1D	1A	1d	1f
=357	=357	=357	=357
2r	2r	2r	2r
2BB-/	2d\	1f	2b-\
2F\	2c\	.	2a/
2G\	2B-\	2e\	2g/
=358	=358	=358	=358
2D\	2A/	2d\	4f/
.	.	.	4d/
2E\	2G/	2c\	1g
1D	1A	1d	.
.	.	.	2f#i/
=359	=359	=359	=359
0Gl	0Gl	0dl	0gl
==	==	==	==
*-	*-	*-	*-
!!!RDF**kern: l=long note in original notation
!!!RDF**kern: i=editorial accidental
!!!RDF**kern: V=start of tuplet marker
!!!RDF**kern: Z=end of tuplet marker
!!!ENC:	Megan K. Eagen 2014/09/23
!!!END:	2014/09/23/
!!!EED:	Jesse Rodin
!!!EEV:	2014/10/12/
!!!ONB:	Translated from MusicXML and edited on 2014/10/12/ by Craig Sapp
!!muse2ps: C^@{COM}^i2I150v85,85,85,150c180
